X:1
T:The Door of Your Heart
T:The Door of Your Heart
T:J. F. K. Macpherson
T:J. F. K. Macpherson, 1908
T:Public Domain Courtesy of the Cyber Hymnal™
T:Public Domain Courtesy of the Cyber Hymnal™
C:J. F. K. Macpherson
Z:Public Domain
Z:Courtesy of the Cyber Hymnal™
%%score ( 1 2 ) ( 3 4 )
L:1/8
Q:1/4=110
M:3/4
K:G
V:1 treble 
V:2 treble 
V:3 bass 
V:4 bass 
V:1
 D>G | [GB]4 [Gc][GB] | [GB]2 [FA]2 G2 | E4 [DF]2 | [DG]4 [GB]2 | [GB]2 [FA]3 G | [EG]2 F2 G2 | %7
w: 1.~Will you|o- pen the|door of your|heart to-|night? Out-|side Je- sus|pa- tient- ly|
w: 2.~Will you|o- pen the|door of your|heart to-|night? Oh|soul, will you|long- er de-|
w: 3.~Will you|o- pen the|door of your|heart to-|night? God’s|Spir- it is|striv- ing with-|
w: 4.~Will you|o- pen the|door of your|heart to-|night? Don’t|send the dear|Sav- ior a-|
 [FA]4 D>G | [GB]4 [Gc][GB] | [Bd]2 [GB]2 G2 | E2 [EG]3 [EA] | [FB]4 [Gc]2 | [GB]2 [DG]3 [DB] | %13
w: stands; He is|gra- cious- ly|wait- ing, how|can you Him|slight? He’s|knock- ing with|
w: lay? When the|Sav- ior can|free you from|sin’s aw- ful|blight, There’s|dan- ger and|
w: in; He may|ne- ver a-|gain with your|stub- born will|fight, But|leave you to|
w: way; Lest He|leave you for-|ev- er con-|demned in God’s|sight, That|a- w- ful|
 [EA]2 E2 [DF]2 | [DG]4 ||"^Refrain" [GB]2 | [GB]2 [FA]2 [GB]2 | [Bd]4 [GB]G | [EG]4 [Ec]2 | %19
w: nail pierc- èd|hands.|||||
w: death in your|way.|||||
w: per- ish in|sin.|||||
w: reck- on- ing|day.|||||
 [GB]4 [GB]2 | [GB]3 [FA] G2 | [FA]2 [Fc]3 [GB] | [FA]4 [GB][GB] | [GB]2 [Ac]2 [GB]2 | %24
w: |||||
w: |||||
w: |||||
w: |||||
 [FA]4 [GB]>[Ac] | [Bd]2 !fermata![df]3 [ce] | [Bd]4 [Ac]2 | [GB]2 [Gd]3 E | (F2 B2) [FA]2 | G4 |] %30
w: ||||||
w: ||||||
w: ||||||
w: ||||||
V:2
 D>G | x6 | x4 G2 | E4 x2 | x6 | x5 G | x2 F2 G2 | x4 D>G | x6 | x4 G2 | E2 x4 | x6 | x6 | %13
 x2 E2 x2 | x4 || x2 | x6 | x5 G | x6 | x6 | x4 G2 | x6 | x6 | x6 | x6 | x6 | x6 | x5 E | D4 x2 | %29
 G4 |] %30
V:3
 [G,B,]>[G,D] | [G,D]4 [G,E][G,D] | [G,,D]2 [A,,C]2 [B,,B,]2 | [C,C]4 [D,C]2 | [G,,B,]4 [G,D]2 | %5
w: ~ ~|~ ~ ~|~ ~ ~|~ ~|~ ~|
 [G,D]2 [D,C]3 [E,B,] | [A,,^C]2 [A,,C]2 [A,,C]2 | [D,D]4 [G,B,]>[G,D] | [G,D]4 [G,E][G,D] | %9
w: ~ ~ ~|~ ~ ~|~ ~ ~|~ ~ ~|
 [D,D]2 [E,C]2 [D,B,]2 | [C,C]2 [E,C]3 [C,E] | [B,,^D]4 [C,E]2 | [G,D]2 [G,B,]3 [E,B,] | %13
w: ~ ~ ~|~ ~ ~|~ ~|~ ~ ~|
 [C,C]2 [A,,E]2 (DC) | [G,,B,]4 || [G,B,]2 | [G,B,]2 [G,C]2 [G,B,]2 | [G,B,]4 [G,C][G,B,] | %18
w: ~ ~ ~ *|~|Just|o- pen the|door of your|
 [C,C]4 [C,C]2 | [G,D]4 [G,D]2 | [E,C]3 [E,C] [E,B,]2 | [F,A,]2 [F,A,]3 [G,B,] | %22
w: heart to-|night, For|Je- sus now|seeks you to|
 [D,D]4 [G,B,][G,B,] | [G,B,]2 [F,A,]2 [G,B,]2 | [D,D]4 [G,,G,]>[A,,F,] | %25
w: win; He is|wait- ing out-|side, Swing the|
 [B,,G,]2 !fermata![C,A,]3 [E,C] | [G,B,]4 [C,A,]2 | [D,B,]2 [E,B,]3 [E,E] | (D2 B,2) [D,C]2 | %29
w: door o- pen|wide, And|glad- ly He’ll|en- * ter|
 [G,,B,]4 |] %30
w: in.|
V:4
 x2 | x6 | x6 | x6 | x6 | x6 | x6 | x6 | x6 | x6 | x6 | x6 | x6 | x4 D,2 | x4 || x2 | x6 | x6 | %18
 x6 | x6 | x6 | x6 | x6 | x6 | x6 | x6 | x6 | x6 | D,4 x2 | x4 |] %30

